src/asset/24px/angle-up.svg

<svg width="24" height="24" viewBox="0 0 24 24" fill="none" xmlns="http://www.w3.org/2000/svg">
<path fill-rule="evenodd" clip-rule="evenodd" d="M20.7071 15.7126C20.3166 16.0958 19.6834 16.0958 19.2929 15.7126L12.7071 9.25C12.3166 8.86678 11.6834 8.86678 11.2929 9.25L4.70711 15.7126C4.31658 16.0958 3.68342 16.0958 3.29289 15.7126C2.90237 15.3294 2.90237 14.708 3.29289 14.3248L9.87868 7.86224C11.0503 6.71259 12.9497 6.71258 14.1213 7.86224L20.7071 14.3248C21.0976 14.708 21.0976 15.3294 20.7071 15.7126Z" fill="#808080"/>
</svg>

<svg width="24" height="24" fill="none" xmlns="http://www.w3.org/2000/svg"><path fill-rule="evenodd" clip-rule="evenodd" d="M20.707 15.713a1.014 1.014 0 01-1.414 0L12.707 9.25a1.014 1.014 0 00-1.414 0l-6.586 6.463a1.014 1.014 0 01-1.414 0 .968.968 0 010-1.388l6.586-6.463a3.04 3.04 0 014.242 0l6.586 6.463a.968.968 0 010 1.388z" fill="gray"/></svg>
